packages/brickdoc-design-icons/assets/edit/rte-h1.svg

<svg width="1em" height="1em" viewBox="0 0 24 24" fill="none" xmlns="http://www.w3.org/2000/svg">
<path fill-rule="evenodd" clip-rule="evenodd" d="M20.407 13H22V22H19.841V15.8875C19.4659 16.1101 19.0496 16.2859 18.5971 16.4168L18 16.5897V14.3786L18.3543 14.2895C18.6603 14.2126 18.9894 14.075 19.3659 13.8653C19.7422 13.6334 20.0385 13.4014 20.2681 13.1513L20.407 13Z" fill="#3E3E3E"/>
<path d="M2 2V22H4.5777V13.0364H13.4223V22H16V2H13.4223V10.4314H4.5777V2H2Z" fill="#3E3E3E"/>
</svg>

<svg  viewBox="0 0 24 24" width="1em" height="1em" fill="none" xmlns="http://www.w3.org/2000/svg"><path fill-rule="evenodd" clip-rule="evenodd" d="M20.407 13H22v9h-2.159v-6.113a5.331 5.331 0 0 1-1.244.53L18 16.59v-2.211l.354-.09a4.204 4.204 0 0 0 1.012-.424 4.19 4.19 0 0 0 .902-.714l.139-.151Z" fill="#34313c"/><path d="M2 2v20h2.578v-8.964h8.844V22H16V2h-2.578v8.431H4.578V2H2Z" fill="#34313c"/></svg>
